images_sukapura_svg/cmd/sc_connectorarrows.svg

<svg viewBox="0 0 16 16" xmlns="http://www.w3.org/2000/svg" xmlns:xlink="http://www.w3.org/1999/xlink"><linearGradient id="a" gradientTransform="translate(-29.694915 1.220339)" gradientUnits="userSpaceOnUse" x1="14" x2="13.79661" y1="22" y2="2.135593"><stop offset="0" stop-color="#0040dd"/><stop offset="1" stop-color="#0a84ff"/></linearGradient><linearGradient id="b" gradientUnits="userSpaceOnUse" x1="10.576271" x2="10.762712" xlink:href="#a" y1="14.483051" y2="1.533898"/><linearGradient id="c" gradientUnits="userSpaceOnUse" x1="13.338983" x2="13.338983" xlink:href="#a" y1="14.838983" y2="10.093221"/><linearGradient id="d" gradientUnits="userSpaceOnUse" x1="2" x2="2" xlink:href="#a" y1="6" y2="1"/>
/&amp;amp;gt;<g fill="#4d82b8"><path d="m4 3v1h4v8 1h5v-1h-4v-8-1z" fill="url(#b)"/><path d="m11 15 4-2.5-4-2.5z" fill="url(#c)" fill-rule="evenodd"/><path d="m5 6-4-2.5 4-2.5z" fill="url(#d)"/></g></svg>

<?xml version="1.0" encoding="UTF-8" standalone="no"?>
<svg
   xmlns:dc="http://purl.org/dc/elements/1.1/"
   xmlns:cc="http://creativecommons.org/ns#"
   xmlns:rdf="http://www.w3.org/1999/02/22-rdf-syntax-ns#"
   xmlns:svg="http://www.w3.org/2000/svg"
   xmlns="http://www.w3.org/2000/svg"
   xmlns:xlink="http://www.w3.org/1999/xlink"
   xmlns:sodipodi="http://sodipodi.sourceforge.net/DTD/sodipodi-0.dtd"
   xmlns:inkscape="http://www.inkscape.org/namespaces/inkscape"
   viewBox="0 0 16 16"
   version="1.1"
   id="svg10"
   sodipodi:docname="sc_connectorarrows.svg"
   inkscape:export-filename="D:\Rizmut\libreoffice-style-sukapura-master\images_sukapura\cmd\sc_connectorarrowend.png"
   inkscape:export-xdpi="96"
   inkscape:export-ydpi="96"
   inkscape:version="0.92.3 (2405546, 2018-03-11)"><metadata
   id="metadata16">
  <rdf:RDF>
    <cc:Work
       rdf:about="">
      <dc:format>image/svg+xml</dc:format>
      <dc:type
         rdf:resource="http://purl.org/dc/dcmitype/StillImage" />
      <dc:title></dc:title>
    </cc:Work>
  </rdf:RDF>
</metadata>
<defs
   id="defs14">
  <linearGradient
     gradientTransform="translate(-29.694915,1.220339)"
     id="a-6"
     gradientUnits="userSpaceOnUse"
     x1="14"
     x2="13.79661"
     y1="22"
     y2="2.1355929">
    <stop
       offset="0"
       stop-color="#0040dd"
       id="stop2" />
    <stop
       offset="1"
       stop-color="#0a84ff"
       id="stop4" />
  </linearGradient>
  <linearGradient
     inkscape:collect="always"
     xlink:href="#a-6"
     id="linearGradient1565"
     x1="10.576271"
     y1="14.483051"
     x2="10.762712"
     y2="1.5338984"
     gradientUnits="userSpaceOnUse" />
  <linearGradient
     inkscape:collect="always"
     xlink:href="#a-6"
     id="linearGradient1595"
     x1="13.338983"
     y1="14.838983"
     x2="13.338983"
     y2="10.093221"
     gradientUnits="userSpaceOnUse" />
  <linearGradient
     inkscape:collect="always"
     xlink:href="#a-6"
     id="linearGradient1617"
     x1="2"
     y1="6"
     x2="2"
     y2="1"
     gradientUnits="userSpaceOnUse" />
</defs>
<sodipodi:namedview
   pagecolor="#ffffff"
   bordercolor="#666666"
   borderopacity="1"
   objecttolerance="10"
   gridtolerance="10"
   guidetolerance="10"
   inkscape:pageopacity="0"
   inkscape:pageshadow="2"
   inkscape:window-width="1366"
   inkscape:window-height="716"
   id="namedview12"
   showgrid="true"
   inkscape:zoom="10.429825"
   inkscape:cx="18.199098"
   inkscape:cy="-4.7779095"
   inkscape:window-x="-8"
   inkscape:window-y="-8"
   inkscape:window-maximized="1"
   inkscape:current-layer="g8">
  <inkscape:grid
     type="xygrid"
     id="grid1609" />
</sodipodi:namedview>
/&amp;gt;<g
   fill="#4d82b8"
   id="g8">
  <path
     d="m 4,3 v 1 h 4 v 8 1 h 5 V 12 H 9 V 4 3 Z"
     id="path4"
     style="fill:url(#linearGradient1565);fill-opacity:1;stroke:none"
     inkscape:connector-curvature="0"
     sodipodi:nodetypes="ccccccccccc" />
  <path
     inkscape:connector-curvature="0"
     style="fill-rule:evenodd;stroke:none;fill-opacity:1;fill:url(#linearGradient1595)"
     d="M 11,15 15,12.5 11,10 Z"
     id="path6" />
  <path
     inkscape:connector-curvature="0"
     d="M 5,6 1,3.5 5,1 Z"
     id="path6-4"
     style="stroke:none;fill-opacity:1;fill:url(#linearGradient1617)" />
</g>
</svg>
